assets/home-tab/Asset/bill.svg

<svg width="24" height="24" viewBox="0 0 24 24" fill="none" xmlns="http://www.w3.org/2000/svg">
<path fill-rule="evenodd" clip-rule="evenodd" d="M2.50248 2.35662V2.32718C2.50248 1.16245 3.91499 0.583966 4.73197 1.4141C5.24195 1.93229 6.07754 1.93229 6.58752 1.4141L7.39156 0.597121C8.17511 -0.19904 9.45893 -0.19904 10.2425 0.59712L10.5488 0.908408C11.3324 1.70457 12.6162 1.70457 13.3997 0.908408L13.7061 0.597121C14.4897 -0.19904 15.7735 -0.19904 16.557 0.59712L17.3611 1.4141C17.871 1.93229 18.7066 1.93229 19.2166 1.4141C20.0336 0.583966 21.4461 1.16245 21.4461 2.32718V2.35883C22.1668 9.91915 22.2016 14.1635 21.4461 21.6033V21.6348C21.4461 22.7995 20.0336 23.378 19.2166 22.5479C18.7066 22.0297 17.871 22.0297 17.3611 22.5479L16.557 23.3649C15.7735 24.161 14.4897 24.161 13.7061 23.3649L13.3997 23.0536C12.6162 22.2574 11.3324 22.2574 10.5488 23.0536L10.2425 23.3649C9.45893 24.161 8.17511 24.161 7.39156 23.3649L6.58752 22.5479C6.07754 22.0297 5.24195 22.0297 4.73197 22.5479C3.91499 23.378 2.50248 22.7995 2.50248 21.6348V21.6053C1.833 14.0884 1.83201 9.87356 2.50248 2.35662ZM14.4418 9.28691H15.2408C15.6582 9.28691 15.9998 9.61675 15.9998 10.0199C15.9998 10.423 15.6582 10.7529 15.2408 10.7529H14.5957C14.3781 10.7529 14.1929 10.9049 14.1186 11.1095C13.679 12.3207 12.4884 13.1937 11.0891 13.1937C10.7939 13.1937 10.6327 13.5381 10.8218 13.7648L13.5255 17.0052C13.7911 17.3204 13.738 17.7822 13.4116 18.0387C13.2674 18.1487 13.1004 18.2 12.9335 18.2C12.7134 18.2 12.4933 18.112 12.3415 17.9288L8.16701 12.9225C7.98486 12.7026 7.94691 12.4021 8.07594 12.1455C8.19737 11.889 8.47061 11.7277 8.75903 11.7277H11.0891C11.5142 11.7277 11.9018 11.5751 12.1973 11.3244C12.4557 11.1052 12.2461 10.7529 11.9072 10.7529H8.75903C8.34158 10.7529 8.00004 10.423 8.00004 10.0199C8.00004 9.61675 8.34158 9.28691 8.75903 9.28691H11.7202C12.0834 9.28691 12.2789 8.89588 11.9678 8.70857C11.7122 8.55467 11.4119 8.46597 11.0891 8.46597H8.75903C8.34158 8.46597 8.00004 8.13613 8.00004 7.73298C8.00004 7.32984 8.34158 7 8.75903 7H15.2408C15.6582 7 15.9998 7.32984 15.9998 7.73298C15.9998 8.13613 15.6582 8.46597 15.2408 8.46597H14.4516C14.1758 8.46597 13.9988 8.77534 14.0952 9.0338C14.1497 9.17996 14.2858 9.28691 14.4418 9.28691Z" fill="white"/>
</svg>

<svg xmlns="http://www.w3.org/2000/svg" width="24" height="24" fill="none" viewBox="0 0 24 24"><path fill="#fff" fill-rule="evenodd" d="M2.502 2.357v-.03c0-1.165 1.413-1.743 2.23-.913.51.518 1.346.518 1.856 0l.804-.817a2 2 0 0 1 2.85 0l.307.311a2 2 0 0 0 2.85 0l.307-.31a2 2 0 0 1 2.851 0l.804.816c.51.518 1.346.518 1.856 0 .817-.83 2.23-.252 2.23.913v.032c.72 7.56.755 11.805 0 19.244v.032c0 1.164-1.413 1.743-2.23.913a1.3 1.3 0 0 0-1.856 0l-.804.817a2 2 0 0 1-2.85 0l-.307-.311a2 2 0 0 0-2.851 0l-.306.31a2 2 0 0 1-2.851 0l-.804-.816a1.3 1.3 0 0 0-1.856 0c-.817.83-2.23.252-2.23-.913v-.03c-.669-7.517-.67-11.731 0-19.248m11.94 6.93h.799c.417 0 .759.33.759.733s-.342.733-.76.733h-.644a.52.52 0 0 0-.477.357c-.44 1.21-1.63 2.084-3.03 2.084a.348.348 0 0 0-.267.57l2.704 3.241a.717.717 0 0 1-.114 1.034.8.8 0 0 1-.479.161.76.76 0 0 1-.591-.271l-4.175-5.006a.71.71 0 0 1-.091-.777.76.76 0 0 1 .683-.418h2.33c.425 0 .813-.153 1.108-.404.259-.219.05-.571-.29-.571H8.76c-.417 0-.759-.33-.759-.733s.342-.733.759-.733h2.961c.363 0 .559-.391.248-.578a1.7 1.7 0 0 0-.879-.243H8.76A.75.75 0 0 1 8 7.733C8 7.33 8.342 7 8.759 7h6.482c.417 0 .759.33.759.733s-.342.733-.76.733h-.788c-.276 0-.453.31-.357.568.055.146.19.253.347.253" clip-rule="evenodd"/></svg>
